X: 238
%
U:~=!turn!
T: Hon. Mr. Ramsay Maule's Strathspey
C:Neil Gow
O:Scotland
B:Keith Norman MacDonald : "The Skye collection of the best reels & strathspeys extant" : 1887
Z:Ralph Palmer
R:Strathspey
M:C
L:1/8
K:E aeolian
e | B<ETB>A FDDd | B<ETB>A B<ETB>A | B<dA<d FDDd | B<ETB>A GEEe | B<ETB>A FDDd |
B<FTB>A B<de<f | d>BAG FDDd | B<ETB>A GEE || g | eBeg dDTA>F | eBeg eBeg | e>f {ef}ge dDAF |
B<ETB>A GEEg | eBeg dD {/B}AG/F/ | eBeg Be/f/ ge | dfBd FD {/B}AG/F/ | B<ETB>A GEE |]


